X: 779
T: Panhandle Country
C:Bill Monroe
B: jims roots
M:4/4
L:1/8
Q: 1/4=100
K:C
V:1 
G2 A2 c2 || "C"d-[ge][ge][ge] [ge][ge][ge]([ge] | [c2e])[ce][ce] [ce][ce][c2e] | "F"c-[df][df][df] [df][df]c2 | [cA][cA][cA][cA] [cA][cA][cA][cA] |
"G"c-[df][df][df] [df][df]cc | c2 G2 GA c2 | "C"d-[ge][ge][ge] [ge][ge][g2d] | c2 c2 c2 c2 ||
"C"d-[ge][ge][ge] [ge][ge][ge]([ge] | [c2e])[c2e] [ce][ce][ce][ce] | "F"cdcd cdcc | (G[A)c][cA][cA] [c2A]c2 |
"G"c-[df][df][df] [df][df]cc | c2c2 {d}[ee][ee][e(e]d) | "C"c2GG FF_E=E c2 ||
G,B, | C2EF GGAB | cccd c2A2 | AAA2 A2AG | BBBB cBB2 |
dccB B2AA | GDFD EDDB, | C2CE EGGc | c2c2 CCG,B, ||
"C"[EC][E2C2][EC] [E2C][EC][EB,] | "C7"[E2_B,][E2_B,] [E_B,][E_B,][E_B,][E_B,2] | "F"[F2A,2] [F2A,2] [F2A,2] [F2A,2] | [F2A,2] [FA,][FA,] [FA,][FA,][FA,][FA,] |
 "G"G,B,B,D DGGg | gddB BGGc | "C"cccG AGED | C2[ge][ge] [ge][ge][ge][ge] ||
% abcbook-tune_id 6298c2793f58e5e5dae195e2


% abcbook-boost 0
% abcbook-tablature 
% abcbook-transpose 
% abcbook-lastupdated 1654178426381
% abcbook-soundfonts 
% abcbook-repeats 1


